modules/hawcons-filled/icons/icon-19-one-finger-swipe-right.svg

<?xml version="1.0" encoding="UTF-8" standalone="no"?>
<svg width="32px" height="32px" viewBox="0 0 32 32" version="1.1" xmlns="http://www.w3.org/2000/svg" xmlns:xlink="http://www.w3.org/1999/xlink" xmlns:sketch="http://www.bohemiancoding.com/sketch/ns">
    <!-- Generator: Sketch 3.0.3 (7891) - http://www.bohemiancoding.com/sketch -->
    <title>icon 19 one finger swipe right</title>
    <desc>Created with Sketch.</desc>
    <defs></defs>
    <g id="Page-1" stroke="none" stroke-width="1" fill="none" fill-rule="evenodd" sketch:type="MSPage">
        <g id="icon-19-one-finger-swipe-right" sketch:type="MSArtboardGroup" fill="#929292">
            <path d="M15.1151466,8 L15.1151466,14.5 L15.1151466,17 L16.1151466,17 L16.1151466,14.4325233 L16.1151466,12.4908981 C16.1151466,11.6762201 16.7867195,11 17.6151466,11 C18.4493494,11 19.1151466,11.6674978 19.1151466,12.4908981 L19.1151466,14.5082011 L19.1151466,16 L20.1151466,16 L20.1151466,14.5082011 L20.1151466,13.4912653 C20.1151466,12.6625444 20.7867195,12 21.6151466,12 C22.4493494,12 23.1151466,12.6676622 23.1151466,13.4912653 L23.1151466,14.6781559 L23.1151466,17 L24.1151466,17 L24.1151466,16.7497253 L24.1151466,14.5063976 C24.1151466,13.6764628 24.7867195,13 25.6151466,13 C26.4493494,13 27.1151466,13.6744372 27.1151466,14.5063976 L27.1151466,19.2468012 L27.1151466,22.5 C27.1151466,26.6421358 23.7572825,30 19.6151466,30 C15.8554315,29.9995418 13.6251425,27.9488875 11.8625221,24.9830936 C7.95050863,18.4007216 5.14900956,15.3887562 6.23617935,14.2957153 C7.34677642,13.1791206 10.056747,15.5979243 12.1151466,17.7983451 L12.1151466,7.50863659 C12.1151466,6.66642015 12.7867195,6 13.6151466,6 C14.2706533,6 14.8221757,6.41705896 15.028382,7 L23.049999,7 L19.799999,3.75 L20.549999,3 L25.049999,7.5 L20.549999,12 L19.799999,11.25 L23.049999,8 L15.1151466,8 L15.1151466,8 Z" id="one-finger-swipe-right" sketch:type="MSShapeGroup"></path>
        </g>
    </g>
</svg>

<svg width="32" height="32" viewBox="0 0 32 32" xmlns="http://www.w3.org/2000/svg"><path d="M15.115 8v9h1v-4.509a1.501 1.501 0 0 1 3 0V16h1v-2.509c0-.828.672-1.491 1.5-1.491.834 0 1.5.668 1.5 1.491V17h1v-2.494a1.5 1.5 0 1 1 3 0V22.5a7.5 7.5 0 0 1-7.5 7.5c-3.76 0-5.99-2.051-7.752-5.017-3.912-6.582-6.714-9.594-5.627-10.687 1.11-1.117 3.82 1.302 5.88 3.502V7.508A1.499 1.499 0 0 1 15.027 7h8.022L19.8 3.75l.75-.75 4.5 4.5-4.5 4.5-.75-.75L23.05 8h-7.935z" fill="#929292" fill-rule="evenodd"/></svg>
